images/3234637.svg

<?xml version="1.0" encoding="UTF-8"?>
<svg xmlns="http://www.w3.org/2000/svg" xmlns:xlink="http://www.w3.org/1999/xlink" width="300pt" height="300pt" viewBox="0 0 300 300" version="1.1">
<defs>
<g>
<symbol overflow="visible" id="glyph0-0">
<path style="stroke:none;" d="M 0.453125 1.59375 L 0.453125 -6.34375 L 4.953125 -6.34375 L 4.953125 1.59375 Z M 0.953125 1.09375 L 4.453125 1.09375 L 4.453125 -5.84375 L 0.953125 -5.84375 Z M 0.953125 1.09375 "/>
</symbol>
<symbol overflow="visible" id="glyph0-1">
<path style="stroke:none;" d="M 3.546875 -5.953125 C 2.898438 -5.953125 2.382812 -5.710938 2 -5.234375 C 1.625 -4.753906 1.4375 -4.101562 1.4375 -3.28125 C 1.4375 -2.445312 1.625 -1.789062 2 -1.3125 C 2.382812 -0.832031 2.898438 -0.59375 3.546875 -0.59375 C 4.191406 -0.59375 4.703125 -0.832031 5.078125 -1.3125 C 5.453125 -1.789062 5.640625 -2.445312 5.640625 -3.28125 C 5.640625 -4.101562 5.453125 -4.753906 5.078125 -5.234375 C 4.703125 -5.710938 4.191406 -5.953125 3.546875 -5.953125 Z M 3.546875 -6.6875 C 4.460938 -6.6875 5.195312 -6.375 5.75 -5.75 C 6.300781 -5.132812 6.578125 -4.3125 6.578125 -3.28125 C 6.578125 -2.238281 6.300781 -1.410156 5.75 -0.796875 C 5.195312 -0.179688 4.460938 0.125 3.546875 0.125 C 2.617188 0.125 1.878906 -0.179688 1.328125 -0.796875 C 0.773438 -1.410156 0.5 -2.238281 0.5 -3.28125 C 0.5 -4.3125 0.773438 -5.132812 1.328125 -5.75 C 1.878906 -6.375 2.617188 -6.6875 3.546875 -6.6875 Z M 3.546875 -6.6875 "/>
</symbol>
<symbol overflow="visible" id="glyph0-2">
<path style="stroke:none;" d="M 0.890625 -6.5625 L 2.078125 -6.5625 L 4.984375 -1.078125 L 4.984375 -6.5625 L 5.84375 -6.5625 L 5.84375 0 L 4.65625 0 L 1.75 -5.484375 L 1.75 0 L 0.890625 0 Z M 0.890625 -6.5625 "/>
</symbol>
</g>
</defs>
<g id="surface49453">
<rect x="0" y="0" width="300" height="300" style="fill:rgb(100%,100%,100%);fill-opacity:1;stroke:none;"/>
<path style="fill:none;stroke-width:1.2;stroke-linecap:butt;stroke-linejoin:miter;stroke:rgb(0%,0%,0%);stroke-opacity:1;stroke-miterlimit:10;" d="M 35.25 132.457031 L 47.296875 132.125 "/>
<path style="fill:none;stroke-width:1.2;stroke-linecap:butt;stroke-linejoin:miter;stroke:rgb(100%,0%,0%);stroke-opacity:1;stroke-miterlimit:10;" d="M 47.296875 132.125 L 59.347656 131.792969 "/>
<path style="fill:none;stroke-width:1.2;stroke-linecap:butt;stroke-linejoin:miter;stroke:rgb(100%,0%,0%);stroke-opacity:1;stroke-miterlimit:10;" d="M 59.347656 131.792969 L 65.660156 142.058594 "/>
<path style="fill:none;stroke-width:1.2;stroke-linecap:butt;stroke-linejoin:miter;stroke:rgb(0%,0%,0%);stroke-opacity:1;stroke-miterlimit:10;" d="M 65.660156 142.058594 L 71.972656 152.328125 "/>
<path style=" stroke:none;fill-rule:nonzero;fill:rgb(100%,100%,100%);fill-opacity:1;" d="M 55.347656 126.292969 L 63.347656 126.292969 L 63.347656 137.292969 L 55.347656 137.292969 Z M 55.347656 126.292969 "/>
<g style="fill:rgb(100%,0%,0%);fill-opacity:1;">
  <use xlink:href="#glyph0-1" x="55.347656" y="134.956055"/>
</g>
<path style="fill:none;stroke-width:1.2;stroke-linecap:butt;stroke-linejoin:miter;stroke:rgb(0%,0%,0%);stroke-opacity:1;stroke-miterlimit:10;" d="M 69.476562 150.980469 L 63.742188 161.578125 "/>
<path style="fill:none;stroke-width:1.2;stroke-linecap:butt;stroke-linejoin:miter;stroke:rgb(100%,0%,0%);stroke-opacity:1;stroke-miterlimit:10;" d="M 63.742188 161.578125 L 58.003906 172.179688 "/>
<path style="fill:none;stroke-width:1.2;stroke-linecap:butt;stroke-linejoin:miter;stroke:rgb(0%,0%,0%);stroke-opacity:1;stroke-miterlimit:10;" d="M 74.464844 153.679688 L 68.730469 164.277344 "/>
<path style="fill:none;stroke-width:1.2;stroke-linecap:butt;stroke-linejoin:miter;stroke:rgb(100%,0%,0%);stroke-opacity:1;stroke-miterlimit:10;" d="M 68.730469 164.277344 L 62.992188 174.878906 "/>
<path style="fill:none;stroke-width:1.2;stroke-linecap:butt;stroke-linejoin:miter;stroke:rgb(0%,0%,0%);stroke-opacity:1;stroke-miterlimit:10;" d="M 71.972656 152.328125 L 84.019531 151.996094 "/>
<path style="fill:none;stroke-width:1.2;stroke-linecap:butt;stroke-linejoin:miter;stroke:rgb(0%,0%,100%);stroke-opacity:1;stroke-miterlimit:10;" d="M 84.019531 151.996094 L 96.070312 151.664062 "/>
<path style=" stroke:none;fill-rule:nonzero;fill:rgb(100%,100%,100%);fill-opacity:1;" d="M 52.5 168.03125 L 60.5 168.03125 L 60.5 179.03125 L 52.5 179.03125 Z M 52.5 168.03125 "/>
<g style="fill:rgb(100%,0%,0%);fill-opacity:1;">
  <use xlink:href="#glyph0-1" x="52.5" y="176.694336"/>
</g>
<path style="fill:none;stroke-width:1.2;stroke-linecap:butt;stroke-linejoin:miter;stroke:rgb(0%,0%,100%);stroke-opacity:1;stroke-miterlimit:10;" d="M 96.070312 151.664062 L 101.804688 141.0625 "/>
<path style="fill:none;stroke-width:1.2;stroke-linecap:butt;stroke-linejoin:miter;stroke:rgb(0%,0%,0%);stroke-opacity:1;stroke-miterlimit:10;" d="M 101.804688 141.0625 L 107.542969 130.460938 "/>
<path style="fill:none;stroke-width:1.2;stroke-linecap:butt;stroke-linejoin:miter;stroke:rgb(0%,0%,0%);stroke-opacity:1;stroke-miterlimit:10;" d="M 108.695312 172.199219 L 102.382812 161.929688 "/>
<path style="fill:none;stroke-width:1.2;stroke-linecap:butt;stroke-linejoin:miter;stroke:rgb(0%,0%,100%);stroke-opacity:1;stroke-miterlimit:10;" d="M 102.382812 161.929688 L 96.070312 151.664062 "/>
<path style=" stroke:none;fill-rule:nonzero;fill:rgb(100%,100%,100%);fill-opacity:1;" d="M 93.070312 146.164062 L 100.070312 146.164062 L 100.070312 157.164062 L 93.070312 157.164062 Z M 93.070312 146.164062 "/>
<g style="fill:rgb(0%,0%,100%);fill-opacity:1;">
  <use xlink:href="#glyph0-2" x="93.070312" y="154.827148"/>
</g>
<path style="fill:none;stroke-width:1.2;stroke-linecap:butt;stroke-linejoin:miter;stroke:rgb(0%,0%,0%);stroke-opacity:1;stroke-miterlimit:10;" d="M 107.542969 130.460938 L 131.640625 129.796875 "/>
<path style="fill:none;stroke-width:1.2;stroke-linecap:butt;stroke-linejoin:miter;stroke:rgb(0%,0%,0%);stroke-opacity:1;stroke-miterlimit:10;" d="M 131.640625 129.796875 L 144.265625 150.332031 "/>
<path style="fill:none;stroke-width:1.2;stroke-linecap:butt;stroke-linejoin:miter;stroke:rgb(0%,0%,0%);stroke-opacity:1;stroke-miterlimit:10;" d="M 144.265625 150.332031 L 156.886719 170.867188 "/>
<path style="fill:none;stroke-width:1.2;stroke-linecap:butt;stroke-linejoin:miter;stroke:rgb(0%,0%,0%);stroke-opacity:1;stroke-miterlimit:10;" d="M 144.265625 150.332031 L 132.792969 171.535156 "/>
<path style="fill:none;stroke-width:1.2;stroke-linecap:butt;stroke-linejoin:miter;stroke:rgb(0%,0%,0%);stroke-opacity:1;stroke-miterlimit:10;" d="M 155.734375 129.132812 L 144.265625 150.332031 "/>
<path style="fill:none;stroke-width:1.2;stroke-linecap:butt;stroke-linejoin:miter;stroke:rgb(0%,0%,0%);stroke-opacity:1;stroke-miterlimit:10;" d="M 156.886719 170.867188 L 180.984375 170.203125 "/>
<path style="fill:none;stroke-width:1.2;stroke-linecap:butt;stroke-linejoin:miter;stroke:rgb(0%,0%,0%);stroke-opacity:1;stroke-miterlimit:10;" d="M 180.984375 170.203125 L 186.722656 159.601562 "/>
<path style="fill:none;stroke-width:1.2;stroke-linecap:butt;stroke-linejoin:miter;stroke:rgb(0%,0%,100%);stroke-opacity:1;stroke-miterlimit:10;" d="M 186.722656 159.601562 L 192.457031 149.003906 "/>
<path style="fill:none;stroke-width:1.2;stroke-linecap:butt;stroke-linejoin:miter;stroke:rgb(0%,0%,100%);stroke-opacity:1;stroke-miterlimit:10;" d="M 192.457031 149.003906 L 186.144531 138.734375 "/>
<path style="fill:none;stroke-width:1.2;stroke-linecap:butt;stroke-linejoin:miter;stroke:rgb(0%,0%,0%);stroke-opacity:1;stroke-miterlimit:10;" d="M 186.144531 138.734375 L 179.832031 128.464844 "/>
<path style="fill:none;stroke-width:1.2;stroke-linecap:butt;stroke-linejoin:miter;stroke:rgb(0%,0%,100%);stroke-opacity:1;stroke-miterlimit:10;" d="M 192.457031 149.003906 L 204.507812 148.667969 "/>
<path style="fill:none;stroke-width:1.2;stroke-linecap:butt;stroke-linejoin:miter;stroke:rgb(0%,0%,0%);stroke-opacity:1;stroke-miterlimit:10;" d="M 204.507812 148.667969 L 216.554688 148.335938 "/>
<path style=" stroke:none;fill-rule:nonzero;fill:rgb(100%,100%,100%);fill-opacity:1;" d="M 189.457031 143.503906 L 196.457031 143.503906 L 196.457031 154.503906 L 189.457031 154.503906 Z M 189.457031 143.503906 "/>
<g style="fill:rgb(0%,0%,100%);fill-opacity:1;">
  <use xlink:href="#glyph0-2" x="189.457031" y="152.166992"/>
</g>
<path style="fill:none;stroke-width:1.2;stroke-linecap:butt;stroke-linejoin:miter;stroke:rgb(0%,0%,0%);stroke-opacity:1;stroke-miterlimit:10;" d="M 179.832031 128.464844 L 155.734375 129.132812 "/>
<path style="fill:none;stroke-width:1.2;stroke-linecap:butt;stroke-linejoin:miter;stroke:rgb(0%,0%,0%);stroke-opacity:1;stroke-miterlimit:10;" d="M 216.554688 148.335938 L 222.867188 158.605469 "/>
<path style="fill:none;stroke-width:1.2;stroke-linecap:butt;stroke-linejoin:miter;stroke:rgb(0%,0%,100%);stroke-opacity:1;stroke-miterlimit:10;" d="M 222.867188 158.605469 L 229.179688 168.875 "/>
<path style="fill:none;stroke-width:1.2;stroke-linecap:butt;stroke-linejoin:miter;stroke:rgb(0%,0%,0%);stroke-opacity:1;stroke-miterlimit:10;" d="M 222.648438 147.421875 L 227.699219 155.632812 "/>
<path style="fill:none;stroke-width:1.2;stroke-linecap:butt;stroke-linejoin:miter;stroke:rgb(0%,0%,100%);stroke-opacity:1;stroke-miterlimit:10;" d="M 227.699219 155.632812 L 232.75 163.847656 "/>
<path style="fill:none;stroke-width:1.2;stroke-linecap:butt;stroke-linejoin:miter;stroke:rgb(0%,0%,100%);stroke-opacity:1;stroke-miterlimit:10;" d="M 228.027344 127.136719 L 222.292969 137.734375 "/>
<path style="fill:none;stroke-width:1.2;stroke-linecap:butt;stroke-linejoin:miter;stroke:rgb(0%,0%,0%);stroke-opacity:1;stroke-miterlimit:10;" d="M 222.292969 137.734375 L 216.554688 148.335938 "/>
<path style="fill:none;stroke-width:1.2;stroke-linecap:butt;stroke-linejoin:miter;stroke:rgb(0%,0%,100%);stroke-opacity:1;stroke-miterlimit:10;" d="M 229.179688 168.875 L 241.230469 168.539062 "/>
<path style="fill:none;stroke-width:1.2;stroke-linecap:butt;stroke-linejoin:miter;stroke:rgb(0%,0%,0%);stroke-opacity:1;stroke-miterlimit:10;" d="M 241.230469 168.539062 L 253.277344 168.207031 "/>
<path style=" stroke:none;fill-rule:nonzero;fill:rgb(100%,100%,100%);fill-opacity:1;" d="M 226.179688 163.375 L 233.179688 163.375 L 233.179688 174.375 L 226.179688 174.375 Z M 226.179688 163.375 "/>
<g style="fill:rgb(0%,0%,100%);fill-opacity:1;">
  <use xlink:href="#glyph0-2" x="226.179688" y="172.038086"/>
</g>
<path style="fill:none;stroke-width:1.2;stroke-linecap:butt;stroke-linejoin:miter;stroke:rgb(0%,0%,0%);stroke-opacity:1;stroke-miterlimit:10;" d="M 253.277344 168.207031 L 264.75 147.007812 "/>
<path style="fill:none;stroke-width:1.2;stroke-linecap:butt;stroke-linejoin:miter;stroke:rgb(0%,0%,0%);stroke-opacity:1;stroke-miterlimit:10;" d="M 249.4375 163.386719 L 258.613281 146.425781 "/>
<path style="fill:none;stroke-width:1.2;stroke-linecap:butt;stroke-linejoin:miter;stroke:rgb(0%,0%,0%);stroke-opacity:1;stroke-miterlimit:10;" d="M 264.75 147.007812 L 252.125 126.46875 "/>
<path style="fill:none;stroke-width:1.2;stroke-linecap:butt;stroke-linejoin:miter;stroke:rgb(0%,0%,0%);stroke-opacity:1;stroke-miterlimit:10;" d="M 252.125 126.46875 L 240.078125 126.804688 "/>
<path style="fill:none;stroke-width:1.2;stroke-linecap:butt;stroke-linejoin:miter;stroke:rgb(0%,0%,100%);stroke-opacity:1;stroke-miterlimit:10;" d="M 240.078125 126.804688 L 228.027344 127.136719 "/>
<path style="fill:none;stroke-width:1.2;stroke-linecap:butt;stroke-linejoin:miter;stroke:rgb(0%,0%,0%);stroke-opacity:1;stroke-miterlimit:10;" d="M 249.871094 132.207031 L 240.234375 132.472656 "/>
<path style="fill:none;stroke-width:1.2;stroke-linecap:butt;stroke-linejoin:miter;stroke:rgb(0%,0%,100%);stroke-opacity:1;stroke-miterlimit:10;" d="M 240.234375 132.472656 L 230.59375 132.738281 "/>
<path style=" stroke:none;fill-rule:nonzero;fill:rgb(100%,100%,100%);fill-opacity:1;" d="M 225.027344 121.636719 L 232.027344 121.636719 L 232.027344 132.636719 L 225.027344 132.636719 Z M 225.027344 121.636719 "/>
<g style="fill:rgb(0%,0%,100%);fill-opacity:1;">
  <use xlink:href="#glyph0-2" x="225.027344" y="130.299805"/>
</g>
<path style="fill:none;stroke-width:1.2;stroke-linecap:butt;stroke-linejoin:miter;stroke:rgb(0%,0%,0%);stroke-opacity:1;stroke-miterlimit:10;" d="M 132.792969 171.535156 L 108.695312 172.199219 "/>
</g>
</svg>

<svg xmlns="http://www.w3.org/2000/svg" xmlns:xlink="http://www.w3.org/1999/xlink" width="300pt" height="300pt" viewBox="0 0 300 300"><defs><symbol overflow="visible"><path d="M.453 1.594v-7.938h4.5v7.938zm.5-.5h3.5v-6.938h-3.5zm0 0"/></symbol><symbol overflow="visible" id="a"><path d="M3.547-5.953c-.65 0-1.164.242-1.547.72-.375.48-.563 1.13-.563 1.952 0 .835.188 1.49.563 1.967.383.48.898.72 1.547.72.644 0 1.156-.24 1.53-.72.376-.476.564-1.132.564-1.968 0-.822-.187-1.474-.562-1.954-.375-.477-.887-.72-1.53-.72zm0-.734c.914 0 1.648.312 2.203.937.55.617.828 1.438.828 2.47 0 1.042-.277 1.87-.828 2.483-.555.617-1.29.922-2.203.922-.93 0-1.668-.305-2.22-.922C.774-1.41.5-2.237.5-3.28c0-1.033.273-1.853.828-2.47.55-.625 1.29-.938 2.22-.938zm0 0"/></symbol><symbol overflow="visible" id="b"><path d="M.89-6.563H2.08l2.906 5.485v-5.484h.86V0H4.656L1.75-5.484V0H.89zm0 0"/></symbol></defs><g><path fill="#fff" d="M0 0h300v300H0z"/><path d="M35.25 132.457l12.047-.332" stroke-width="1.2" stroke="#000" stroke-miterlimit="10" fill="none"/><path d="M47.297 132.125l12.05-.332M59.348 131.793l6.312 10.266" stroke-width="1.2" stroke="#f00" stroke-miterlimit="10" fill="none"/><path d="M65.66 142.06l6.313 10.268" stroke-width="1.2" stroke="#000" stroke-miterlimit="10" fill="none"/><path d="M55.348 126.293h8v11h-8zm0 0" fill="#fff"/><use xlink:href="#a" x="55.348" y="134.956" fill="#f00"/><path d="M69.477 150.98l-5.735 10.598" stroke-width="1.2" stroke="#000" stroke-miterlimit="10" fill="none"/><path d="M63.742 161.578l-5.738 10.602" stroke-width="1.2" stroke="#f00" stroke-miterlimit="10" fill="none"/><path d="M74.465 153.68l-5.735 10.597" stroke-width="1.2" stroke="#000" stroke-miterlimit="10" fill="none"/><path d="M68.73 164.277l-5.738 10.602" stroke-width="1.2" stroke="#f00" stroke-miterlimit="10" fill="none"/><path d="M71.973 152.328l12.047-.332" stroke-width="1.2" stroke="#000" stroke-miterlimit="10" fill="none"/><path d="M84.02 151.996l12.05-.332" stroke-width="1.2" stroke="#00f" stroke-miterlimit="10" fill="none"/><path d="M52.5 168.03h8v11h-8zm0 0" fill="#fff"/><use xlink:href="#a" x="52.5" y="176.694" fill="#f00"/><path d="M96.07 151.664l5.735-10.6" stroke-width="1.2" stroke="#00f" stroke-miterlimit="10" fill="none"/><path d="M101.805 141.063l5.738-10.602M108.695 172.2l-6.312-10.27" stroke-width="1.2" stroke="#000" stroke-miterlimit="10" fill="none"/><path d="M102.383 161.93l-6.313-10.266" stroke-width="1.2" stroke="#00f" stroke-miterlimit="10" fill="none"/><path d="M93.07 146.164h7v11h-7zm0 0" fill="#fff"/><use xlink:href="#b" x="93.07" y="154.827" fill="#00f"/><path d="M107.543 130.46l24.098-.663M131.64 129.797l12.626 20.535M144.266 150.332l12.62 20.535M144.266 150.332l-11.473 21.203M155.734 129.133l-11.468 21.2M156.887 170.867l24.097-.664M180.984 170.203l5.74-10.6" stroke-width="1.2" stroke="#000" stroke-miterlimit="10" fill="none"/><path d="M186.723 159.602l5.734-10.598M192.457 149.004l-6.312-10.27" stroke-width="1.2" stroke="#00f" stroke-miterlimit="10" fill="none"/><path d="M186.145 138.734l-6.313-10.27" stroke-width="1.2" stroke="#000" stroke-miterlimit="10" fill="none"/><path d="M192.457 149.004l12.05-.336" stroke-width="1.2" stroke="#00f" stroke-miterlimit="10" fill="none"/><path d="M204.508 148.668l12.047-.332" stroke-width="1.2" stroke="#000" stroke-miterlimit="10" fill="none"/><path d="M189.457 143.504h7v11h-7zm0 0" fill="#fff"/><use xlink:href="#b" x="189.457" y="152.167" fill="#00f"/><path d="M179.832 128.465l-24.098.668M216.555 148.336l6.312 10.27" stroke-width="1.2" stroke="#000" stroke-miterlimit="10" fill="none"/><path d="M222.867 158.605l6.313 10.27" stroke-width="1.2" stroke="#00f" stroke-miterlimit="10" fill="none"/><path d="M222.648 147.422l5.05 8.21" stroke-width="1.2" stroke="#000" stroke-miterlimit="10" fill="none"/><path d="M227.7 155.633l5.05 8.215M228.027 127.137l-5.734 10.597" stroke-width="1.2" stroke="#00f" stroke-miterlimit="10" fill="none"/><path d="M222.293 137.734l-5.738 10.602" stroke-width="1.2" stroke="#000" stroke-miterlimit="10" fill="none"/><path d="M229.18 168.875l12.05-.336" stroke-width="1.2" stroke="#00f" stroke-miterlimit="10" fill="none"/><path d="M241.23 168.54l12.047-.333" stroke-width="1.2" stroke="#000" stroke-miterlimit="10" fill="none"/><path d="M226.18 163.375h7v11h-7zm0 0" fill="#fff"/><use xlink:href="#b" x="226.18" y="172.038" fill="#00f"/><path d="M253.277 168.207l11.473-21.2M249.438 163.387l9.175-16.96M264.75 147.008l-12.625-20.54M252.125 126.47l-12.047.335" stroke-width="1.2" stroke="#000" stroke-miterlimit="10" fill="none"/><path d="M240.078 126.805l-12.05.332" stroke-width="1.2" stroke="#00f" stroke-miterlimit="10" fill="none"/><path d="M249.87 132.207l-9.636.266" stroke-width="1.2" stroke="#000" stroke-miterlimit="10" fill="none"/><path d="M240.234 132.473l-9.64.265" stroke-width="1.2" stroke="#00f" stroke-miterlimit="10" fill="none"/><path d="M225.027 121.637h7v11h-7zm0 0" fill="#fff"/><use xlink:href="#b" x="225.027" y="130.3" fill="#00f"/><path d="M132.793 171.535l-24.098.664" stroke-width="1.2" stroke="#000" stroke-miterlimit="10" fill="none"/></g></svg>
